X:70
T: Eireann Go Brch
S: "Johnny O'Leary of Sliabh Luachra" (#2)
Z: B.Black
Q: 300
L: 1/8
M: 6/8
R: jig
K: A
e2d|: cAA BAA|aga e z d|cAA eAA|Bcd Bed|
c/d/cA BAA|aga e/f/ed|c/d/ec BAB|1 cAG Aed :|2\
cAA A2B||
cBc ecA|dAd a3|cBc ecA|dcd B/c/BB|
cBc ecA|dBd daa|c/d/ec BAB|1 cAA A/B/AB :|2\
cAA Aed||
